X:78
T:KATYCRL- Katy Cruel
S:Allen Family songs, 1899
Q:1/4=20
L:1/4
M:2/4
K:Am
A|A/ B/ c/ A/|B3/4 B/4 A/ B/4 B/4|c/ A/ B/ G/|A/ B/ c/ A/|\
G3/4 G/4 E/ G/|G/ A/ G/ E/|G A/4 A/4 A/4 A/4 |Ec3/4 d/4|\
e/ E/ E/ E/|Az||"Chorus"A/ A/4 B/4 c/ A/4 c/4|B/ G/ A/ A/4 B/4|\
c/ A/4 c/4 B/ G/|A/ B/ c/ A/4 A/4|G/ E/ G3/4 G/4|\
G/ A/4 A/4 G/ E/|GA/4 A/4 A/4 A/4|Ec3/4 d/4|\
e/ E/ E/ E/|A|]

